src/img/projects/django.svg

<?xml version="1.0" encoding="UTF-8"?>
<svg width="90px" height="90px" viewBox="0 0 90 90" version="1.1" xmlns="http://www.w3.org/2000/svg" xmlns:xlink="http://www.w3.org/1999/xlink">
    <!-- Generator: Sketch 41.2 (35397) - http://www.bohemiancoding.com/sketch -->
    <title>community/card/logo/django</title>
    <desc>Created with Sketch.</desc>
    <defs></defs>
    <g id="Symbols" stroke="none" stroke-width="1" fill="none" fill-rule="evenodd">
        <g id="community/card/logo/django" fill="#2EDE98">
            <path d="M29.5369278,46.7899379 C29.5089444,52.1653478 33.4116354,55.3698592 39.6395195,53.9128888 L39.6395195,39.6669871 C33.3329118,37.7272363 29.5633075,41.6516166 29.5369278,46.7899379 M39.8300383,19.0678068 L48.4076618,19.0678068 L48.4076618,60.0733412 C40.185715,61.4309215 32.3111285,62.2919904 26.67772,59.110633 C19.4241978,55.0147314 18.841072,41.998751 24.5807966,36.2016166 C27.4909264,33.2626855 33.349546,31.1936297 39.6395195,32.543833 L39.6395195,19.6454724 C39.6230866,19.3721084 39.6078678,19.0999773 39.8300383,19.0678068 Z M62.3951392,28.1159642 L53.8175151,28.1159642 L53.8175151,19.0678068 L62.3951392,19.0678068 L62.3951392,28.1159642 L62.3951392,28.1159642 Z M62.5322968,32.8382986 C62.5225578,39.2176035 62.5239862,43.8016166 62.5233694,51.5516166 C62.1589685,59.1678068 62.243779,65.2327642 59.4825695,68.8770265 C58.9379971,69.5956756 57.781491,70.6440363 56.8138811,71.3798986 C56.0012824,71.9977215 54.452579,73.2505937 53.5734311,73.3050986 C52.6871822,73.3600494 50.4102853,72.0624756 49.3797778,71.5723117 C48.0266653,70.9286658 46.7758129,70.073951 45.3770492,69.647315 C48.6398165,67.6053084 51.7370214,66.0743642 53.0014681,61.9466986 C54.1011634,58.3569478 53.9546727,53.1550986 53.9546727,48.0856363 C53.9546727,43.0798986 53.9767867,37.2602265 53.9767867,32.8405543 L62.5322955,32.8385871 L62.5322968,32.8382986 Z" id="Combined-Shape"></path>
        </g>
    </g>
</svg>

<svg width="90" height="90" viewBox="0 0 90 90" xmlns="http://www.w3.org/2000/svg"><title>community/card/logo/django</title><path d="M29.537 46.79c-.028 5.375 3.875 8.58 10.103 7.123V39.667c-6.307-1.94-10.077 1.985-10.103 7.123M39.83 19.068h8.578v41.005c-8.222 1.358-16.097 2.219-21.73-.962-7.254-4.096-7.837-17.112-2.097-22.91 2.91-2.938 8.769-5.007 15.059-3.657V19.645c-.017-.273-.032-.545.19-.577zm22.565 9.048h-8.577v-9.048h8.577v9.048zm.137 4.722c-.01 6.38-.008 10.964-.009 18.714-.364 7.616-.28 13.68-3.04 17.325-.545.719-1.702 1.767-2.67 2.503-.812.618-2.36 1.87-3.24 1.925-.886.055-3.163-1.243-4.193-1.733-1.353-.643-2.604-1.498-4.003-1.925 3.263-2.042 6.36-3.573 7.624-7.7 1.1-3.59.954-8.792.954-13.861 0-5.006.022-10.826.022-15.245l8.555-.002z" fill="#2EDE98" fill-rule="evenodd"/></svg>
